X:85
T:Henderson Reel
R:reel
C:Bruce Osborne  -- Nov. 1997
Z:abc by Bruce Osborne - bosborne@kos.net
M:2/4
L:1/8
K:A
E/D/|C/A,/C/E/ AB/c/|d/B/G/B/ A (3e/f/g/|a/e/c/e/ f/e/c/f/|e/c/A/c/ BE/D/|\
C/A,/C/E/ AB/c/|d/B/G/B/ A (3e/f/g/|a/e/c/e/ f/e/c/A/|B/A/G/B/ A:|
|:E/D/|C/A,/C/E/ A/c/e/f/|e/c/A/B/ c/B/A/c/|B/A/B/c/ d/B/G/B/|A/B/c/f/ eE/D/|\
C/A,/C/E/ A/c/e/f/|e/c/A/B/ c/B/A/c/|B/A/B/c/ d/B/G/B/|A/c/B/G/ A:|
